X: 1
T: Orpington Caledonians
T: 8x32R 3C (John Brenchley 1987; RSCDS Bk 49)
P: Orpington Caledonians
C: Robin Ellis
C: arr. John Chambers 2015
R: reel
M: C|
L: 1/8
K: A
|: E2 |\
"A"AGAB "D"dcBA | "E7"BABc "A7"A2Bc |\
[1 "D"dfed "A"cedc | "B7"BABc "E7"B2E2 :|\
[2 "Bm"dfed "E7"cBAG | "A"A2c2 A2 :|
|: c2 |\
"A"ecAc e2e2 | "E7"BGEG B2B2 |\
[1 "D"AFDF A2A2 | "E7"GFEF GABc :|\
[2 "D"AGFE "E7"FGAB | "A"A2c2 A2 :|

